images/instagram.svg

<svg width="16" height="16" viewBox="0 0 16 16" fill="none" xmlns="http://www.w3.org/2000/svg">
<g clip-path="url(#clip0_332837_1023)">
<path d="M15.9843 4.70392C15.9468 3.85378 15.8093 3.26932 15.6124 2.76287C15.4092 2.22529 15.0967 1.74399 14.6872 1.34389C14.2871 0.937561 13.8026 0.621826 13.2713 0.421835C12.7619 0.224897 12.1805 0.0874194 11.3303 0.0499365C10.4738 0.00927917 10.2019 -0.00012207 8.02963 -0.00012207C5.85733 -0.00012207 5.58543 0.00927917 4.73212 0.0467621C3.88197 0.084245 3.29751 0.221845 2.79119 0.418661C2.25348 0.621826 1.77219 0.934387 1.37209 1.34389C0.965758 1.74399 0.650145 2.22846 0.450033 2.75982C0.253096 3.26932 0.115618 3.85061 0.0781347 4.70075C0.0374774 5.55724 0.0280762 5.82914 0.0280762 8.00144C0.0280762 10.1737 0.0374774 10.4456 0.0749603 11.299C0.112443 12.1491 0.250043 12.7336 0.446981 13.24C0.650145 13.7776 0.965758 14.2589 1.37209 14.659C1.77219 15.0653 2.25666 15.3811 2.78801 15.581C3.29751 15.778 3.8788 15.9155 4.72906 15.9529C5.58226 15.9906 5.85428 15.9998 8.02658 15.9998C10.1989 15.9998 10.4708 15.9906 11.3241 15.9529C12.1742 15.9155 12.7587 15.778 13.265 15.581C14.3403 15.1653 15.1904 14.3152 15.6062 13.24C15.803 12.7305 15.9406 12.1491 15.9781 11.299C16.0156 10.4456 16.025 10.1737 16.025 8.00144C16.025 5.82914 16.0218 5.55724 15.9843 4.70392ZM14.5435 11.2364C14.509 12.0179 14.3778 12.4398 14.2684 12.7211C13.9995 13.4181 13.4463 13.9714 12.7493 14.2402C12.468 14.3496 12.043 14.4809 11.2646 14.5152C10.4207 14.5528 10.1676 14.562 8.03281 14.562C5.89799 14.562 5.64172 14.5528 4.80085 14.5152C4.01945 14.4809 3.5975 14.3496 3.31619 14.2402C2.96932 14.112 2.65359 13.9088 2.39731 13.6432C2.13163 13.3837 1.92847 13.0712 1.80027 12.7243C1.69087 12.443 1.55962 12.0179 1.52532 11.2396C1.48771 10.3957 1.47843 10.1425 1.47843 8.00767C1.47843 5.87285 1.48771 5.61658 1.52532 4.77584C1.55962 3.99443 1.69087 3.57248 1.80027 3.29117C1.92847 2.94418 2.13163 2.62857 2.40049 2.37217C2.65981 2.10649 2.97237 1.90333 3.31937 1.77525C3.60067 1.66585 4.0258 1.5346 4.80403 1.50017C5.64794 1.46269 5.90117 1.45329 8.03586 1.45329C10.1738 1.45329 10.4269 1.46269 11.2678 1.50017C12.0492 1.5346 12.4712 1.66585 12.7525 1.77525C13.0993 1.90333 13.4151 2.10649 13.6714 2.37217C13.937 2.63162 14.1402 2.94418 14.2684 3.29117C14.3778 3.57248 14.509 3.99749 14.5435 4.77584C14.581 5.61975 14.5904 5.87285 14.5904 8.00767C14.5904 10.1425 14.581 10.3925 14.5435 11.2364Z" fill="#F4F4FD"/>
<path d="M8.02967 3.89124C5.76055 3.89124 3.91949 5.73217 3.91949 8.00141C3.91949 10.2707 5.76055 12.1116 8.02967 12.1116C10.2989 12.1116 12.1398 10.2707 12.1398 8.00141C12.1398 5.73217 10.2989 3.89124 8.02967 3.89124ZM8.02967 10.6676C6.55758 10.6676 5.3635 9.47362 5.3635 8.00141C5.3635 6.5292 6.55758 5.33524 8.02967 5.33524C9.50188 5.33524 10.6958 6.5292 10.6958 8.00141C10.6958 9.47362 9.50188 10.6676 8.02967 10.6676V10.6676Z" fill="#F4F4FD"/>
<path d="M13.262 3.72871C13.262 4.2586 12.8324 4.68825 12.3024 4.68825C11.7725 4.68825 11.3428 4.2586 11.3428 3.72871C11.3428 3.19869 11.7725 2.76917 12.3024 2.76917C12.8324 2.76917 13.262 3.19869 13.262 3.72871V3.72871Z" fill="#F4F4FD"/>
</g>
<defs>
<clipPath id="clip0_332837_1023">
<rect width="16" height="16" fill="white"/>
</clipPath>
</defs>
</svg>

<svg xmlns="http://www.w3.org/2000/svg" width="16" height="16" fill="none"><g fill="#F4F4FD" clip-path="url(#a)"><path d="M15.9843 4.704c-.0375-.8502-.175-1.4347-.3719-1.9411-.2032-.5376-.5157-1.019-.9252-1.419a3.938 3.938 0 0 0-1.4159-.922c-.5094-.197-1.0908-.3345-1.941-.372C10.4738.0093 10.2019 0 8.0296 0S5.5854.0093 4.7321.0468c-.8501.0374-1.4346.175-1.941.3719-.5376.2031-1.019.5157-1.419.9252a3.9392 3.9392 0 0 0-.922 1.416C.253 3.2692.1155 3.8505.078 4.7007c-.0406.8564-.05 1.1283-.05 3.3006s.0094 2.4442.0469 3.2976c.0374.8501.175 1.4346.372 1.941a3.9453 3.9453 0 0 0 .925 1.419 3.9367 3.9367 0 0 0 1.416.922c.5095.197 1.0908.3345 1.941.3719.8533.0377 1.1253.0469 3.2976.0469s2.4442-.0092 3.2975-.0469c.8501-.0374 1.4346-.1749 1.9409-.3719a4.0925 4.0925 0 0 0 2.3412-2.341c.1968-.5095.3344-1.0909.3719-1.941.0375-.8534.0469-1.1253.0469-3.2976s-.0032-2.4442-.0407-3.2975Zm-1.4408 6.5324c-.0345.7815-.1657 1.2034-.2751 1.4847a2.6543 2.6543 0 0 1-1.5191 1.5191c-.2813.1094-.7063.2407-1.4847.275-.8439.0376-1.097.0468-3.2318.0468s-2.391-.0092-3.232-.0468c-.7813-.0343-1.2033-.1656-1.4846-.275-.3469-.1282-.6626-.3314-.9189-.597a2.4877 2.4877 0 0 1-.597-.9189c-.1094-.2813-.2407-.7064-.275-1.4847-.0376-.8439-.0469-1.0971-.0469-3.232 0-2.1348.0093-2.391.047-3.2318.0342-.7814.1655-1.2033.2749-1.4846.1282-.347.3313-.6626.6002-.919a2.4836 2.4836 0 0 1 .9189-.597c.2813-.1093.7064-.2406 1.4846-.275.844-.0375 1.0972-.047 3.2319-.047 2.1379 0 2.391.0095 3.2319.047.7814.0344 1.2034.1657 1.4847.275.3468.1281.6626.3313.9189.597.2656.2594.4688.572.597.919.1094.2813.2406.7063.2751 1.4846.0375.844.0469 1.097.0469 3.2319 0 2.1348-.0094 2.3848-.0469 3.2287Z"/><path d="M8.0297 3.8912c-2.2691 0-4.1102 1.841-4.1102 4.1102 0 2.2693 1.841 4.1102 4.1102 4.1102 2.2692 0 4.1101-1.8409 4.1101-4.1102 0-2.2692-1.8409-4.1102-4.1101-4.1102Zm0 6.7764c-1.4721 0-2.6662-1.194-2.6662-2.6662s1.194-2.6662 2.6662-2.6662 2.6661 1.194 2.6661 2.6662-1.194 2.6662-2.6661 2.6662ZM13.262 3.7287c0 .5299-.4296.9596-.9596.9596-.5299 0-.9596-.4297-.9596-.9596 0-.53.4297-.9595.9596-.9595.53 0 .9596.4295.9596.9595Z"/></g><defs><clipPath id="a"><path fill="#fff" d="M0 0h16v16H0z"/></clipPath></defs></svg>
